X: 1
T: Auretti's Dutch Skipper
O: England c.1756
R: jig
Z: John Chambers <jc:trillian.mit.edu>
M: 6/8
L: 1/8
K: G
D \
| "G"GDG BAG | "D7"AFD c3 | "G"BAG "D7"FAF | "G" GDB, G,2D \
| "G"GDG BAG | "D7"AFD ABc | "G"BAG "D7"DGF | "G"G3- G2 :|
|: D \
| "G"GBd dBG | "C"Ace e2D | "G"GBd dBG | "D7"FAA A2D \
| "G"GBd dBG | "C"Agf g2c | "G"BAG "D7"DGF | "G"G3- G2 :|
